svg/color/bnb.svg

<svg width="64" height="65" viewBox="0 0 64 65" fill="none" xmlns="http://www.w3.org/2000/svg">
<rect y="0.303711" width="64" height="64" rx="32" fill="#F0B90B"/>
<rect x="0.5" y="0.803711" width="63" height="63" rx="31.5" stroke="#070B14" stroke-opacity="0.15"/>
<path d="M17.5872 32.3037L17.6103 40.7653L24.8 44.996V49.9499L13.4026 43.2653V29.8294L17.5872 32.3037ZM17.5872 23.8422V28.773L13.4 26.296V21.3653L17.5872 18.8883L21.7949 21.3653L17.5872 23.8422ZM27.8026 21.3653L31.9898 18.8883L36.1975 21.3653L31.9898 23.8422L27.8026 21.3653Z" fill="white"/>
<path d="M20.6129 39.0114V34.0576L24.8 36.5345V41.4653L20.6129 39.0114ZM27.8026 46.7704L31.9898 49.2473L36.1975 46.7704V51.7012L31.9898 54.1781L27.8026 51.7012V46.7704ZM42.2026 21.3653L46.3898 18.8883L50.5975 21.3653V26.296L46.3898 28.773V23.8422L42.2026 21.3653ZM46.3898 40.7653L46.4129 32.3037L50.6 29.8268V43.2627L39.2026 49.9473V44.9935L46.3898 40.7653Z" fill="white"/>
<path d="M43.3872 39.0114L39.2 41.4653V36.5345L43.3872 34.0576V39.0114Z" fill="white"/>
<path d="M43.3872 25.5961L43.4103 30.5499L36.2 34.7807V43.2627L32.0129 45.7166L27.8257 43.2627V34.7807L20.6154 30.5499V25.5961L24.8206 23.1191L31.9872 27.3704L39.1975 23.1191L43.4052 25.5961H43.3872ZM20.6129 17.1371L31.9898 10.4294L43.3872 17.1371L39.2 19.614L31.9898 15.3627L24.8 19.614L20.6129 17.1371Z" fill="white"/>
</svg>

<svg xmlns="http://www.w3.org/2000/svg" width="64" height="65" fill="none" viewBox="0 0 64 65"><rect width="64" height="64" y=".304" fill="#F0B90B" rx="32"/><rect width="63" height="63" x=".5" y=".804" stroke="#070B14" stroke-opacity=".15" rx="31.5"/><path fill="#fff" d="m17.587 32.304.023 8.461 7.19 4.231v4.954l-11.397-6.685V29.83zm0-8.462v4.931L13.4 26.296v-4.93l4.187-2.478 4.208 2.477zm10.216-2.477 4.187-2.477 4.208 2.477-4.208 2.477z"/><path fill="#fff" d="M20.613 39.011v-4.953l4.187 2.477v4.93zm7.19 7.76 4.187 2.476 4.208-2.477v4.931l-4.208 2.477-4.187-2.477zm14.4-25.406 4.187-2.477 4.207 2.477v4.931l-4.207 2.477v-4.93zm4.187 19.4.023-8.461 4.187-2.477v13.436l-11.397 6.684v-4.954z"/><path fill="#fff" d="M43.387 39.011 39.2 41.465v-4.93l4.187-2.477z"/><path fill="#fff" d="m43.387 25.596.023 4.954-7.21 4.23v8.483l-4.187 2.454-4.187-2.454V34.78l-7.21-4.231v-4.954l4.205-2.477 7.166 4.251 7.21-4.25 4.208 2.476zm-22.774-8.459L31.99 10.43l11.397 6.708-4.187 2.477-7.21-4.251-7.19 4.251z"/></svg>
